dist/img/star-empty.svg

<svg width="28" height="28" viewBox="0 0 28 28" fill="none" xmlns="http://www.w3.org/2000/svg">
<path d="M16.5589 10.865C16.7637 11.5391 17.3853 12 18.0898 12H25.8812L19.5159 16.5496C18.9549 16.9506 18.7139 17.6658 18.9178 18.3245L21.3936 26.3206L14.9675 21.4439C14.3953 21.0097 13.6039 21.01 13.0321 21.4447L6.62265 26.3166L9.09706 18.3248C9.30113 17.6657 9.05968 16.95 8.49802 16.5492L2.12293 12H9.91018C10.6147 12 11.2363 11.5392 11.4411 10.865L14 2.44071L16.5589 10.865ZM6.2537 27.5083L6.25391 27.5076L6.2537 27.5083Z" stroke="#F87C09" stroke-width="2"/>
</svg>

<svg width="28" height="28" fill="none" xmlns="http://www.w3.org/2000/svg"><path d="M16.559 10.865A1.6 1.6 0 0 0 18.089 12h7.792l-6.365 4.55a1.6 1.6 0 0 0-.598 1.774l2.476 7.997-6.426-4.877a1.6 1.6 0 0 0-1.936 0l-6.41 4.873 2.475-7.992a1.6 1.6 0 0 0-.599-1.776L2.123 12H9.91a1.6 1.6 0 0 0 1.531-1.135L14 2.441l2.559 8.424ZM6.254 27.508Z" stroke="#F87C09" stroke-width="2"/></svg>
